tools/download-figma-icons/icons/outlined-large/motion-detector.svg

<svg width="64" height="64" viewBox="0 0 64 64" fill="none" xmlns="http://www.w3.org/2000/svg">
<path fill-rule="evenodd" clip-rule="evenodd" d="M41.0047 31.9333C41.0047 33.5873 42.3507 34.9333 44.0047 34.9333C45.6587 34.9333 47.0046 33.5873 47.0046 31.9333C47.0046 30.2793 45.6587 28.9334 44.0047 28.9334C42.3507 28.9334 41.0047 30.2793 41.0047 31.9333ZM30.0028 54.4232H42.5047V37.7533C42.4592 37.7426 42.4162 37.7266 42.3732 37.7105C42.3395 37.698 42.3058 37.6854 42.2707 37.6753C42.2336 37.6643 42.1975 37.6519 42.161 37.6394C42.1444 37.6337 42.1276 37.6279 42.1107 37.6223C39.6437 36.8393 37.8457 34.5953 37.8457 31.9333C37.8457 29.2714 39.6437 27.0274 42.1107 26.2444C42.1276 26.2387 42.1444 26.233 42.1611 26.2272C42.1975 26.2147 42.2336 26.2024 42.2707 26.1914C42.3058 26.1813 42.3395 26.1687 42.3732 26.1561C42.4163 26.1401 42.4592 26.124 42.5047 26.1134V9.4935H30.0028V54.4232ZM26.3738 60.9821C26.5758 61.0381 26.7308 60.9521 26.8038 60.8961C26.8768 60.8391 26.9998 60.7131 26.9998 60.4981L27.0028 3.50055C27.0028 3.28755 26.8808 3.16155 26.8078 3.10455C26.7508 3.06155 26.6468 2.99955 26.5058 2.99955C26.4648 2.99955 26.4208 3.00555 26.3738 3.01755L3.37397 9.14151C3.15598 9.2005 3.00298 9.3985 3.00298 9.6245L2.99998 54.1532C2.99998 54.3772 3.15098 54.5762 3.36897 54.6352C3.36963 54.6355 3.37017 54.6357 3.37068 54.6359C3.37107 54.636 3.37144 54.636 3.37182 54.6361L3.37397 54.6362L26.3738 60.9821ZM45.5047 8.99351V26.1304C48.0886 26.7994 50.0046 29.1434 50.0046 31.9333C50.0046 34.7233 48.0886 37.0673 45.5047 37.7363V54.9232C45.5047 56.3021 44.3837 57.4231 43.0047 57.4231H29.9998V60.4981C29.9998 61.5981 29.4988 62.6121 28.6238 63.2801C28.0038 63.7531 27.2648 64.0001 26.5088 64.0001C26.1998 64.0001 25.8878 63.9591 25.5798 63.8751L2.57498 57.5291C1.05899 57.1131 0 55.7251 0 54.1532L0.00299998 9.6245C0.00299998 8.04151 1.07099 6.65152 2.60198 6.24353L25.6028 0.119574C26.6588 -0.161424 27.7668 0.0575745 28.6358 0.726569C29.5048 1.39356 30.0028 2.40556 30.0028 3.50055V6.49353H43.0047C44.3837 6.49353 45.5047 7.61452 45.5047 8.99351ZM17.5029 30.4577H22.5028C23.3308 30.4577 24.0028 31.1297 24.0028 31.9577C24.0028 32.7857 23.3308 33.4577 22.5028 33.4577H17.5029C16.6749 33.4577 16.0029 32.7857 16.0029 31.9577C16.0029 31.1297 16.6749 30.4577 17.5029 30.4577ZM53.195 22.7654C52.609 22.1794 51.66 22.1794 51.074 22.7654C50.488 23.3514 50.488 24.3004 51.074 24.8864C52.963 26.7754 54.003 29.2864 54.003 31.9573C54.003 34.6283 52.963 37.1393 51.074 39.0283C50.488 39.6143 50.488 40.5633 51.074 41.1493C51.367 41.4423 51.751 41.5883 52.134 41.5883C52.518 41.5883 52.902 41.4423 53.195 41.1493C55.65 38.6943 57.003 35.4293 57.003 31.9573C57.003 28.4854 55.65 25.2204 53.195 22.7654ZM56.0242 17.7918C56.6102 17.2058 57.5592 17.2058 58.1452 17.7918C65.9431 25.5908 65.9431 38.2777 58.1452 46.0756C57.8522 46.3686 57.4682 46.5156 57.0842 46.5156C56.7012 46.5156 56.3172 46.3686 56.0242 46.0756C55.4382 45.4896 55.4382 44.5406 56.0242 43.9546C62.6521 37.3267 62.6521 26.5418 56.0242 19.9128C55.4382 19.3268 55.4382 18.3778 56.0242 17.7918Z" fill="black"/>
</svg>

<svg width="64" height="64" viewBox="0 0 64 64" fill="none" xmlns="http://www.w3.org/2000/svg"><path fill-rule="evenodd" clip-rule="evenodd" d="M41.005 31.933c0 1.654 1.346 3 3 3s3-1.346 3-3-1.346-3-3-3-3 1.346-3 3Zm-11.002 22.49h12.502v-16.67a1.08 1.08 0 0 1-.132-.042 1.117 1.117 0 0 0-.102-.036 1.413 1.413 0 0 1-.11-.036l-.05-.017c-2.467-.783-4.265-3.027-4.265-5.689s1.798-4.906 4.265-5.689l.05-.017c.036-.012.073-.025.11-.036a1.39 1.39 0 0 0 .102-.035c.043-.016.086-.032.132-.043V9.493H30.003v44.93Zm-3.63 6.56a.486.486 0 0 0 .43-.087.495.495 0 0 0 .197-.398l.003-56.997a.501.501 0 0 0-.629-.483l-23 6.124a.502.502 0 0 0-.371.482L3 54.154a.5.5 0 0 0 .369.481h.002v.001h.003l23 6.346Zm19.132-51.99V26.13c2.584.67 4.5 3.013 4.5 5.803s-1.916 5.134-4.5 5.803v17.187c0 1.38-1.121 2.5-2.5 2.5H30v3.075c0 1.1-.501 2.114-1.376 2.782a3.477 3.477 0 0 1-3.044.595L2.575 57.53A3.51 3.51 0 0 1 0 54.153L.003 9.624a3.503 3.503 0 0 1 2.599-3.38l23-6.124a3.475 3.475 0 0 1 3.034.607A3.473 3.473 0 0 1 30.003 3.5v2.993h13.002c1.379 0 2.5 1.12 2.5 2.5ZM17.503 30.459h5a1.5 1.5 0 0 1 0 3h-5a1.5 1.5 0 0 1 0-3Zm35.692-7.693a1.5 1.5 0 1 0-2.121 2.121 9.934 9.934 0 0 1 2.929 7.071 9.934 9.934 0 0 1-2.929 7.071 1.5 1.5 0 1 0 2.121 2.121 12.916 12.916 0 0 0 3.808-9.192c0-3.472-1.353-6.737-3.808-9.192Zm2.83-4.973a1.5 1.5 0 0 1 2.12 0c7.798 7.799 7.798 20.486 0 28.284a1.496 1.496 0 0 1-2.12 0 1.5 1.5 0 0 1 0-2.121c6.627-6.628 6.627-17.413 0-24.042a1.5 1.5 0 0 1 0-2.121Z" fill="currentColor"/></svg>
